ncols 20
nrows 20
xllcorner 0.0
yllcorner 0.0
cellsize 50.0
NODATA_value -9999
0.000000 0.000000 0.000000 0.000000 0.000000 0.000000 0.000000 0.000000 0.000000 0.000000 0.000000 0.000000 0.000000 0.000000 0.000000 0.000000 0.000000 0.000000 0.000000 0.000000
0.000000 0.000000 0.000000 0.000000 0.000000 0.000000 0.000000 0.018552 0.008675 0.000000 0.000000 0.000000 0.000000 0.000000 0.000000 0.002806 0.018905 0.009491 0.000000 0.000000
0.000000 0.000000 0.000000 0.000000 0.000000 0.004543 0.000149 0.064724 0.085643 0.000000 0.000000 0.000000 0.000000 0.000000 0.000000 0.000000 0.008213 0.000000 0.000000 0.000000
0.000000 0.000000 0.000000 0.000000 0.000000 0.043515 0.000282 0.000319 0.000011 0.000000 0.000000 0.000000 0.000000 0.000000 0.000000 0.000000 0.001803 0.000000 0.000000 0.000000
0.000000 0.000000 0.000000 0.000000 0.000000 0.003586 0.000000 0.000000 0.000000 0.000000 0.000000 0.000000 0.000000 0.000000 0.000000 0.000000 0.000000 0.000000 0.000000 0.000000
0.000000 0.003563 0.004504 0.000000 0.000000 0.000000 0.000000 0.000000 0.000000 0.000000 0.000000 0.000000 0.000000 0.000000 0.000000 0.000000 0.000000 0.000000 0.000000 0.000000
0.000000 0.000000 0.000000 0.000000 0.000000 0.006433 0.006752 0.000094 0.000000 0.000000 0.000000 0.000000 0.000000 0.000000 0.000000 0.000000 0.000000 0.000000 0.000000 0.000000
0.000000 0.000000 0.000000 0.000000 0.000000 0.064078 0.030155 0.000000 0.000000 0.000000 0.000000 0.000232 0.019047 0.017352 0.002929 0.000000 0.000000 0.000000 0.000000 0.000000
0.000000 0.000000 0.000000 0.000000 0.000000 0.001640 0.000772 0.000000 0.000000 0.000000 0.000000 0.000105 0.008599 0.007833 0.000597 0.000000 0.000000 0.000000 0.000000 0.000000
0.000000 0.000000 0.000000 0.000000 0.000000 0.000000 0.000000 0.000000 0.000000 0.000980 0.001054 0.021912 0.008812 0.000000 0.005051 0.005397 0.000000 0.000000 0.002748 0.001883
0.000000 0.000000 0.000000 0.001028 0.001003 0.000000 0.000000 0.000000 0.000000 0.001484 0.001596 0.057862 0.023269 0.000000 0.000000 0.000000 0.000000 0.000000 0.000696 0.000477
0.000000 0.000000 0.000000 0.000000 0.000686 0.048833 0.010278 0.000282 0.000000 0.000000 0.000000 0.030615 0.012311 0.000000 0.000000 0.000000 0.000000 0.000000 0.000000 0.000000
0.000000 0.000000 0.000000 0.000000 0.000000 0.001247 0.002867 0.000079 0.004940 0.000000 0.000022 0.000291 0.000132 0.000000 0.000000 0.000000 0.000000 0.000000 0.000000 0.000000
0.000000 0.000000 0.000000 0.000000 0.000000 0.000000 0.000000 0.000000 0.038686 0.002622 0.004487 0.058273 0.026468 0.000000 0.000000 0.000000 0.000000 0.000000 0.000000 0.000000
0.000000 0.000000 0.000000 0.000000 0.023375 0.000000 0.000000 0.000000 0.004059 0.009464 0.002332 0.030290 0.013758 0.000000 0.000000 0.000000 0.010052 0.057079 0.028751 0.000000
0.000000 0.000000 0.000000 0.000000 0.017249 0.000000 0.000000 0.000000 0.000000 0.000000 0.000000 0.000000 0.000000 0.002934 0.007623 0.001916 0.001341 0.007613 0.003835 0.000000
0.000000 0.000000 0.000000 0.000000 0.000000 0.000000 0.000000 0.000000 0.000000 0.000000 0.000000 0.000000 0.000000 0.008612 0.045738 0.028858 0.000041 0.000379 0.000492 0.000000
0.000000 0.000000 0.000000 0.000000 0.000000 0.000633 0.004321 0.000000 0.000000 0.000000 0.000000 0.000000 0.000725 0.003671 0.042877 0.016997 0.000051 0.005731 0.007447 0.000000
0.000000 0.000000 0.000000 0.000000 0.000000 0.000000 0.000000 0.000000 0.000000 0.000000 0.000000 0.000000 0.003030 0.000000 0.000000 0.000000 0.000000 0.000000 0.000000 0.000000
0.000000 0.000000 0.000000 0.000000 0.000000 0.000000 0.000000 0.000000 0.000000 0.000000 0.000000 0.000000 0.001027 0.000000 0.000000 0.000000 0.000000 0.000000 0.000000 0.000000
