ncols 20
nrows 20
xllcorner 0.0
yllcorner 0.0
cellsize 50.0
NODATA_value -9999
0.000000 0.000000 0.001749 0.003844 0.000000 0.004908 0.027607 0.001894 0.000000 0.000000 0.000000 0.000000 0.000000 0.000000 0.000000 0.000000 0.000000 0.000000 0.000000 0.000000
0.000000 0.000000 0.005786 0.012718 0.000000 0.011063 0.062219 0.004268 0.000000 0.000000 0.000000 0.000000 0.000000 0.014695 0.000000 0.000000 0.000000 0.000000 0.000000 0.000000
0.000000 0.000000 0.007326 0.009581 0.000225 0.048124 0.103379 0.000106 0.023357 0.019182 0.000000 0.000000 0.000277 0.018564 0.000000 0.000000 0.000000 0.026583 0.034527 0.000000
0.000000 0.000000 0.013720 0.013434 0.000772 0.031327 0.075545 0.000000 0.046380 0.038091 0.000000 0.000000 0.005746 0.014795 0.017797 0.000000 0.000000 0.022850 0.029678 0.000000
0.000000 0.000000 0.000076 0.000121 0.000021 0.000000 0.000000 0.000000 0.022967 0.018863 0.000000 0.000000 0.008110 0.011964 0.006503 0.000000 0.001431 0.015221 0.009181 0.000000
0.000000 0.000000 0.000000 0.000000 0.000000 0.000000 0.000000 0.000926 0.006604 0.001486 0.000000 0.000000 0.012603 0.012465 0.000000 0.000000 0.000000 0.000000 0.000000 0.000000
0.000000 0.000000 0.000000 0.000000 0.000000 0.000000 0.000000 0.000000 0.000000 0.000000 0.000000 0.000000 0.010058 0.016615 0.000000 0.000000 0.000000 0.000000 0.048702 0.029082
0.000000 0.000000 0.000000 0.000000 0.000000 0.000000 0.000000 0.000000 0.000000 0.000000 0.000000 0.000000 0.000756 0.001249 0.000000 0.000000 0.000000 0.000000 0.091135 0.063583
0.000000 0.000000 0.000000 0.000000 0.000000 0.000000 0.000000 0.000000 0.000987 0.005857 0.003768 0.000000 0.000000 0.000000 0.000000 0.000000 0.000000 0.000000 0.033021 0.025744
0.000000 0.000000 0.000000 0.000000 0.000000 0.000000 0.000000 0.000000 0.046288 0.015768 0.009797 0.000000 0.000000 0.000000 0.000000 0.000000 0.000000 0.000000 0.000000 0.000000
0.000000 0.000000 0.004742 0.001822 0.000000 0.000000 0.000000 0.000000 0.049204 0.130652 0.000313 0.003293 0.005381 0.000000 0.000000 0.003054 0.008370 0.003172 0.000000 0.000000
0.000000 0.000000 0.008744 0.003359 0.000000 0.000000 0.000000 0.000000 0.123445 0.143236 0.000360 0.006669 0.010897 0.000000 0.000000 0.001872 0.005131 0.001944 0.001229 0.001225
0.000000 0.000000 0.000212 0.000082 0.000000 0.000000 0.000000 0.000000 0.000000 0.000000 0.000000 0.002680 0.004378 0.000000 0.000000 0.000000 0.000000 0.000000 0.059683 0.059452
0.000000 0.014506 0.029604 0.050946 0.010656 0.000000 0.000000 0.000000 0.000025 0.000312 0.000378 0.005452 0.015452 0.001689 0.000000 0.000000 0.000000 0.000884 0.029860 0.025155
0.000000 0.048527 0.008192 0.002677 0.000000 0.000000 0.000000 0.000000 0.011325 0.000466 0.000565 0.008968 0.049661 0.038352 0.000000 0.004545 0.022703 0.021107 0.005680 0.000052
0.000000 0.023748 0.009649 0.023888 0.012049 0.000000 0.000000 0.000000 0.010340 0.000000 0.000000 0.000000 0.000000 0.022785 0.000000 0.000000 0.000000 0.000000 0.000000 0.000000
0.000000 0.034390 0.107987 0.067876 0.029182 0.012636 0.000000 0.000000 0.000000 0.011154 0.039099 0.074837 0.000944 0.005102 0.000000 0.000000 0.000000 0.000000 0.000000 0.000000
0.000000 0.000053 0.098258 0.127860 0.072286 0.062521 0.000000 0.000000 0.000000 0.014773 0.050680 0.074464 0.002360 0.000000 0.000000 0.000000 0.000353 0.001421 0.000000 0.000000
0.000000 0.000006 0.000406 0.000143 0.048802 0.040420 0.000000 0.000000 0.000000 0.000000 0.013771 0.019938 0.187591 0.018607 0.000000 0.000000 0.000724 0.002914 0.000000 0.000000
0.000000 0.000000 0.000000 0.000000 0.000000 0.000000 0.000000 0.000000 0.000000 0.000000 0.000050 0.016203 0.014341 0.008963 0.000000 0.000000 0.000000 0.000000 0.000000 0.000000
