ncols 20
nrows 20
xllcorner 0.0
yllcorner 0.0
cellsize 50.0
NODATA_value -9999
0.000000 0.000000 0.000000 0.000000 0.000000 0.000000 0.000000 0.000000 0.000000 0.000000 0.000000 0.000000 0.000000 0.000000 0.000000 0.000000 0.000000 0.000000 0.000000 0.000000
0.000000 0.000000 0.000000 0.000000 0.000000 0.000000 0.000000 0.007281 0.003404 0.000000 0.000000 0.000000 0.000000 0.000000 0.000000 0.000000 0.000000 0.000000 0.000000 0.000000
0.000000 0.000000 0.008089 0.009648 0.000283 0.001146 0.038537 0.025349 0.048799 0.007890 0.000000 0.000000 0.000043 0.000192 0.000000 0.000328 0.011118 0.000844 0.001096 0.000000
0.000000 0.000000 0.014677 0.014371 0.000971 0.001740 0.033405 0.000872 0.015752 0.015667 0.000000 0.000000 0.000142 0.000636 0.000000 0.001348 0.014423 0.000725 0.000942 0.000000
0.000000 0.000000 0.000095 0.000153 0.000026 0.000000 0.000000 0.000000 0.009447 0.007758 0.000000 0.000000 0.000046 0.000205 0.000000 0.000414 0.002962 0.000000 0.000000 0.000000
0.000000 0.000000 0.000000 0.000000 0.000000 0.000000 0.000000 0.000057 0.000407 0.000092 0.000000 0.000000 0.000000 0.000000 0.000000 0.000000 0.000000 0.000000 0.000000 0.000000
0.000000 0.000000 0.000000 0.000000 0.000000 0.000608 0.241031 0.018446 0.000000 0.000000 0.000000 0.000000 0.000000 0.000000 0.000000 0.000000 0.000000 0.000000 0.016255 0.009706
0.000000 0.000000 0.000000 0.000000 0.000000 0.006052 0.002848 0.000000 0.000000 0.000000 0.000000 0.000000 0.000000 0.000000 0.040203 0.050962 0.000000 0.000000 0.041225 0.024617
0.000000 0.000000 0.000000 0.000000 0.000000 0.000155 0.000073 0.000000 0.000000 0.000000 0.000000 0.000000 0.000000 0.000000 0.039083 0.063307 0.000000 0.000000 0.014606 0.008722
0.000000 0.000000 0.000000 0.000000 0.000000 0.000000 0.004845 0.002237 0.049103 0.002686 0.000000 0.151071 0.166502 0.000000 0.000000 0.000000 0.000000 0.000000 0.000000 0.000000
0.000000 0.000000 0.032479 0.012995 0.000786 0.000000 0.015735 0.007264 0.066635 0.003645 0.078968 0.136886 0.095371 0.000000 0.000000 0.000000 0.000000 0.000000 0.000000 0.000000
0.000000 0.000000 0.059892 0.023009 0.013473 0.027927 0.016622 0.000455 0.005977 0.000327 0.046493 0.083791 0.021991 0.000000 0.000000 0.000000 0.000000 0.000000 0.000000 0.000000
0.000000 0.000000 0.001455 0.000559 0.000000 0.002017 0.004636 0.000127 0.020644 0.026154 0.230016 0.000370 0.000168 0.000000 0.000000 0.000000 0.000000 0.000000 0.000000 0.000000
0.000000 0.001860 0.025933 0.000000 0.000000 0.000000 0.000000 0.000000 0.216453 0.205531 0.181792 0.073956 0.114113 0.038972 0.000000 0.000000 0.000000 0.000000 0.000000 0.000000
0.000000 0.024379 0.016353 0.002015 0.017496 0.000816 0.000000 0.002351 0.042640 0.021259 0.002960 0.038442 0.017461 0.000000 0.000000 0.000350 0.063470 0.032317 0.002990 0.000000
0.000000 0.004391 0.000000 0.000131 0.065893 0.000053 0.000000 0.030648 0.083556 0.020354 0.000000 0.000000 0.000000 0.000000 0.000000 0.000000 0.000139 0.000792 0.000399 0.000000
0.000000 0.000000 0.007607 0.011087 0.000000 0.000000 0.000000 0.009927 0.027064 0.006593 0.000000 0.000000 0.000000 0.000000 0.000051 0.000233 0.000009 0.000668 0.000868 0.000000
0.000000 0.000000 0.009436 0.042668 0.001342 0.000786 0.005359 0.000000 0.000000 0.000000 0.000000 0.000000 0.002254 0.000000 0.000063 0.000289 0.000011 0.010099 0.013123 0.000000
0.000000 0.000000 0.000000 0.018418 0.006242 0.000000 0.000000 0.000000 0.000000 0.000000 0.000000 0.000000 0.009416 0.000000 0.000000 0.000000 0.000000 0.000000 0.000000 0.000000
0.000000 0.000000 0.000000 0.000000 0.000000 0.000000 0.000000 0.000000 0.000000 0.000000 0.000000 0.000000 0.003192 0.000000 0.000000 0.000000 0.000000 0.000000 0.000000 0.000000
