ncols 20
nrows 20
xllcorner 0.0
yllcorner 0.0
cellsize 50.0
NODATA_value -9999
5.000000 5.000000 0.000000 0.000000 5.000000 3.000000 3.000000 3.000000 5.000000 5.000000 5.000000 5.000000 5.000000 5.000000 5.000000 5.000000 5.000000 5.000000 5.000000 5.000000
5.000000 5.000000 0.000000 0.000000 5.000000 3.000000 3.000000 3.000000 5.000000 5.000000 5.000000 3.000000 3.000000 4.000000 5.000000 5.000000 5.000000 5.000000 5.000000 5.000000
5.000000 5.000000 5.000000 5.000000 5.000000 2.000000 0.000000 0.000000 5.000000 5.000000 5.000000 3.000000 3.000000 4.000000 5.000000 5.000000 5.000000 5.000000 5.000000 5.000000
5.000000 5.000000 5.000000 5.000000 5.000000 2.000000 0.000000 0.000000 5.000000 5.000000 5.000000 5.000000 0.000000 0.000000 1.000000 5.000000 5.000000 5.000000 5.000000 5.000000
5.000000 5.000000 5.000000 5.000000 5.000000 5.000000 0.000000 0.000000 5.000000 5.000000 5.000000 5.000000 0.000000 0.000000 5.000000 5.000000 3.000000 3.000000 3.000000 5.000000
5.000000 5.000000 5.000000 5.000000 5.000000 5.000000 5.000000 5.000000 5.000000 5.000000 5.000000 5.000000 0.000000 0.000000 5.000000 5.000000 5.000000 5.000000 5.000000 5.000000
5.000000 5.000000 5.000000 5.000000 5.000000 5.000000 5.000000 5.000000 5.000000 1.000000 5.000000 4.000000 4.000000 5.000000 5.000000 5.000000 5.000000 3.000000 3.000000 5.000000
5.000000 5.000000 5.000000 5.000000 5.000000 5.000000 5.000000 5.000000 5.000000 1.000000 1.000000 4.000000 4.000000 5.000000 5.000000 5.000000 5.000000 3.000000 1.000000 1.000000
5.000000 5.000000 5.000000 5.000000 5.000000 5.000000 5.000000 5.000000 1.000000 1.000000 1.000000 5.000000 5.000000 5.000000 5.000000 5.000000 5.000000 5.000000 1.000000 1.000000
5.000000 5.000000 5.000000 5.000000 5.000000 5.000000 2.000000 2.000000 1.000000 0.000000 1.000000 5.000000 5.000000 5.000000 5.000000 5.000000 5.000000 5.000000 5.000000 5.000000
5.000000 5.000000 5.000000 5.000000 5.000000 5.000000 2.000000 2.000000 0.000000 0.000000 2.000000 5.000000 5.000000 5.000000 5.000000 1.000000 1.000000 1.000000 5.000000 5.000000
5.000000 5.000000 5.000000 5.000000 5.000000 5.000000 2.000000 2.000000 2.000000 2.000000 2.000000 5.000000 3.000000 3.000000 5.000000 1.000000 1.000000 1.000000 5.000000 5.000000
5.000000 5.000000 5.000000 5.000000 5.000000 5.000000 5.000000 5.000000 2.000000 2.000000 2.000000 5.000000 3.000000 3.000000 5.000000 5.000000 5.000000 5.000000 5.000000 5.000000
5.000000 5.000000 5.000000 4.000000 2.000000 2.000000 5.000000 5.000000 2.000000 1.000000 1.000000 2.000000 5.000000 5.000000 5.000000 5.000000 5.000000 0.000000 0.000000 0.000000
5.000000 5.000000 5.000000 2.000000 2.000000 2.000000 5.000000 5.000000 2.000000 2.000000 3.000000 2.000000 5.000000 0.000000 5.000000 5.000000 5.000000 0.000000 0.000000 0.000000
5.000000 5.000000 5.000000 2.000000 2.000000 2.000000 5.000000 5.000000 2.000000 2.000000 3.000000 5.000000 5.000000 0.000000 5.000000 5.000000 5.000000 5.000000 5.000000 5.000000
5.000000 0.000000 0.000000 0.000000 5.000000 5.000000 5.000000 5.000000 2.000000 2.000000 2.000000 2.000000 2.000000 0.000000 4.000000 1.000000 1.000000 5.000000 5.000000 5.000000
5.000000 0.000000 0.000000 0.000000 5.000000 5.000000 5.000000 1.000000 1.000000 5.000000 2.000000 2.000000 2.000000 4.000000 4.000000 1.000000 1.000000 0.000000 5.000000 5.000000
5.000000 0.000000 0.000000 0.000000 5.000000 5.000000 5.000000 1.000000 1.000000 5.000000 2.000000 2.000000 2.000000 2.000000 5.000000 1.000000 0.000000 0.000000 5.000000 5.000000
5.000000 5.000000 5.000000 5.000000 5.000000 5.000000 5.000000 5.000000 5.000000 5.000000 5.000000 2.000000 2.000000 2.000000 5.000000 5.000000 5.000000 5.000000 5.000000 5.000000
