ncols 20
nrows 20
xllcorner 0.0
yllcorner 0.0
cellsize 50.0
NODATA_value -9999
0.000000 0.000000 0.002012 0.004423 0.000000 0.009703 0.054575 0.003744 0.000000 0.000000 0.000000 0.000000 0.000000 0.000000 0.000000 0.000000 0.000000 0.000000 0.000000 0.000000
0.000000 0.000000 0.006658 0.014635 0.000000 0.021869 0.123000 0.008438 0.000000 0.000000 0.000000 0.002849 0.006525 0.016247 0.000000 0.000000 0.000000 0.000000 0.000000 0.000000
0.000000 0.000000 0.000000 0.000000 0.000000 0.054124 0.077859 0.055500 0.000000 0.000000 0.000000 0.022294 0.051062 0.050409 0.000000 0.000000 0.000000 0.000000 0.000000 0.000000
0.000000 0.000000 0.000000 0.000000 0.000000 0.009843 0.050025 0.009729 0.000000 0.000000 0.000000 0.000000 0.001037 0.008687 0.000082 0.000000 0.000000 0.000000 0.000000 0.000000
0.000000 0.000000 0.000000 0.000000 0.000000 0.000000 0.002333 0.001506 0.000000 0.000000 0.000000 0.000000 0.003433 0.003761 0.000000 0.000000 0.009952 0.105877 0.063865 0.000000
0.000000 0.000000 0.000000 0.000000 0.000000 0.000000 0.000000 0.000000 0.000000 0.000000 0.000000 0.000000 0.001953 0.002140 0.000000 0.000000 0.000000 0.000000 0.000000 0.000000
0.000000 0.000000 0.000000 0.000000 0.000000 0.000000 0.000000 0.000000 0.000000 0.009370 0.000000 0.009600 0.026269 0.000000 0.000000 0.000000 0.000000 0.049723 0.040191 0.000000
0.000000 0.000000 0.000000 0.000000 0.000000 0.000000 0.000000 0.000000 0.000000 0.018827 0.000179 0.013134 0.035939 0.000000 0.000000 0.000000 0.000000 0.019572 0.022415 0.001879
0.000000 0.000000 0.000000 0.000000 0.000000 0.000000 0.000000 0.000000 0.000003 0.029470 0.001751 0.000000 0.000000 0.000000 0.000000 0.000000 0.000000 0.000000 0.005790 0.001866
0.000000 0.000000 0.000000 0.000000 0.000000 0.000000 0.048764 0.014558 0.000008 0.146498 0.000030 0.000000 0.000000 0.000000 0.000000 0.000000 0.000000 0.000000 0.000000 0.000000
0.000000 0.000000 0.000000 0.000000 0.000000 0.000000 0.096697 0.028867 0.092553 0.091052 0.063888 0.000000 0.000000 0.000000 0.000000 0.001921 0.005266 0.001995 0.000000 0.000000
0.000000 0.000000 0.000000 0.000000 0.000000 0.000000 0.046134 0.013773 0.081196 0.088377 0.036406 0.000000 0.003086 0.004272 0.000000 0.001178 0.003228 0.001223 0.000000 0.000000
0.000000 0.000000 0.000000 0.000000 0.000000 0.000000 0.000000 0.000000 0.001598 0.001982 0.000370 0.000000 0.017419 0.024109 0.000000 0.000000 0.000000 0.000000 0.000000 0.000000
0.000000 0.000000 0.000000 0.042275 0.048277 0.034243 0.000000 0.000000 0.000113 0.009062 0.031180 0.008541 0.000000 0.000000 0.000000 0.000000 0.000000 0.002062 0.008184 0.000074
0.000000 0.000000 0.000000 0.004632 0.068213 0.050580 0.000000 0.000000 0.148401 0.034602 0.055282 0.027837 0.000000 0.001314 0.000000 0.000000 0.000000 0.003336 0.013245 0.000121
0.000000 0.000000 0.000000 0.000601 0.008854 0.006565 0.000000 0.000000 0.146608 0.053350 0.005502 0.000000 0.000000 0.010998 0.000000 0.000000 0.000000 0.000000 0.000000 0.000000
0.000000 0.000141 0.010360 0.003651 0.000000 0.000000 0.000000 0.000000 0.000095 0.012340 0.002867 0.004477 0.000292 0.028891 0.005073 0.010543 0.000552 0.000000 0.000000 0.000000
0.000000 0.000240 0.017664 0.006225 0.000000 0.000000 0.000000 0.003154 0.006375 0.000000 0.007168 0.011193 0.000730 0.001669 0.003278 0.016420 0.007393 0.003466 0.000000 0.000000
0.000000 0.000025 0.001853 0.000653 0.000000 0.000000 0.000000 0.001903 0.003848 0.000000 0.004048 0.007460 0.194963 0.008804 0.000000 0.000063 0.061075 0.007108 0.000000 0.000000
0.000000 0.000000 0.000000 0.000000 0.000000 0.000000 0.000000 0.000000 0.000000 0.000000 0.000000 0.000047 0.006785 0.004241 0.000000 0.000000 0.000000 0.000000 0.000000 0.000000
